!!!!SEGMENT: T302_Fal-w1p92m564-577.krn
!!!COM: Falla (y Matheu), Manuel de
!!!OTL: Act II (Second Tableau), Scene 4
!!!AGN: Stage
!!!AGN-sub: Opera
!!!CNT: Spanish
!!!ODT: 1913
!!!OPR: La vida breve (The Brief Life), Opera in Two Acts
!!!filename: T302_Fal-w1p92m564-577.krn
**kern	**dynam	**kern	**dynam	**kern	**dynam	**kern	**dynam	**kern	**dynam	**kern	**kern	**dynam	**kern	**dynam	**kern	**dynam	**kern	**dynam	**kern	**dynam	**kern	**dynam	**kern	**dynam	**kern	**dynam	**kern	**dynam	**kern	**dynam	**kern	**dynam	**kern	**dynam	**kern	**dynam	**kern	**dynam	**kern	**dynam	**kern	**dynam	**kern	**dynam	**kern	**dynam
*grp:A	*	*grp:A	*	*grp:A	*	*grp:A	*	*grp:A	*	*grp:A	*grp:A	*	*grp:A	*	*grp:A	*	*grp:A	*	*grp:A	*	*grp:A	*	*grp:A	*	*grp:A	*	*grp:A	*	*grp:A	*	*grp:A	*	*grp:A	*	*grp:A	*	*grp:A	*	*grp:A	*	*grp:A	*	*grp:A	*	*grp:A	*
*part24	*	*part23	*	*part22	*	*part21	*	*part20	*	*part19	*part18	*	*part17	*	*part16	*	*part15	*	*part14	*	*part13	*	*part12	*	*part11	*	*part10	*	*part9	*	*part8	*	*part7	*	*part6	*	*part5	*	*part4	*	*part3	*	*part2	*	*part1	*
*staff24	*	*staff23	*	*staff22	*	*staff21	*	*staff20	*	*staff19	*staff18	*	*staff17	*	*staff16	*	*staff15	*	*staff14	*	*staff13	*	*staff12	*	*staff11	*	*staff10	*	*staff9	*	*staff8	*	*staff7	*	*staff6	*	*staff5	*	*staff4	*	*staff3	*	*staff2	*	*staff1	*
*I"Contrabass	*	*I"Violoncello	*	*I"Viola	*	*I"Violin II	*	*I"Violin I	*	*I"Party Guests	*I"Bass Drum	*	*I"Cymbals	*	*I"Castanets	*	*I"Tambourine	*	*I"Triangle	*	*I"Timpani	*	*I"Tuba	*	*I"Trombone I.II.	*	*I"Trumpet in C I.II.	*	*I"Horn in F III.IV.	*	*I"Horn in F I.II.	*	*I"Bassoon I.II.	*	*I"Bass Clarinet in Bb	*	*I"Clarinet in Bb I.II.	*	*I"English Horn	*	*I"Oboe I.II.	*	*I"Piccolo	*	*I"Flute I.II.	*
*I'Cb.	*	*I'Vc.	*	*I'Vla.	*	*I'Vln. II	*	*I'Vln. I	*	*I'Perc.	*I'B. D.	*	*I'Cym.	*	*I'Cast.	*	*I'Tamb.	*	*I'Tri.	*	*I'Timp.	*	*I'Tba.	*	*I'Tbn.	*	*I'C Tpt.	*	*I'Hn.	*	*I'Hn.	*	*I'Bsn.	*	*I'B. Cl.	*	*I'Cl.	*	*I'Eng. Hn.	*	*I'Ob.	*	*I'Picc.	*	*I'Fl.	*
*	*	*	*	*	*	*	*	*	*	*stria1	*stria1	*	*stria1	*	*stria1	*	*stria1	*	*stria1	*	*	*	*	*	*	*	*	*	*	*	*	*	*	*	*	*	*	*	*	*	*	*	*	*	*	*
*clefF4	*	*clefF4	*	*clefC3	*	*clefG2	*	*clefG2	*	*clefX	*clefX	*	*clefX	*	*clefX	*	*clefX	*	*clefX	*	*clefF4	*	*clefF4	*	*clefC4	*	*clefG2	*	*clefG2	*	*clefG2	*	*clefF4	*	*clefF4	*	*clefG2	*	*clefG2	*	*clefG2	*	*clefG2	*	*clefG2	*
*ITrd7c12	*	*	*	*	*	*	*	*	*	*	*	*	*	*	*	*	*	*	*	*	*	*	*	*	*	*	*	*	*ITrd4c7	*	*ITrd4c7	*	*	*	*ITrd1c2	*	*ITrd1c2	*	*ITrd4c7	*	*	*	*ITrd-7c-12	*	*	*
*k[]	*	*k[]	*	*k[]	*	*k[]	*	*k[]	*	*k[]	*k[]	*	*k[]	*	*k[]	*	*k[]	*	*k[]	*	*k[]	*	*k[]	*	*k[]	*	*k[]	*	*k[b-]	*	*k[b-]	*	*k[]	*	*k[b-e-]	*	*k[b-e-]	*	*k[b-]	*	*k[]	*	*k[]	*	*k[]	*
*	*	*	*	*	*	*	*	*	*	*C:	*C:	*	*C:	*	*C:	*	*C:	*	*C:	*	*	*	*	*	*	*	*	*	*	*	*	*	*	*	*	*	*	*	*	*	*	*	*	*	*	*
*M3/4	*	*M3/4	*	*M3/4	*	*M3/4	*	*M3/4	*	*M3/4	*M3/4	*	*M3/4	*	*M3/4	*	*M3/4	*	*M3/4	*	*M3/4	*	*M3/4	*	*M3/4	*	*M3/4	*	*M3/4	*	*M3/4	*	*M3/4	*	*M3/4	*	*M3/4	*	*M3/4	*	*M3/4	*	*M3/4	*	*M3/4	*
=562	=562	=562	=562	=562	=562	=562	=562	=562	=562	=562	=562	=562	=562	=562	=562	=562	=562	=562	=562	=562	=562	=562	=562	=562	=562	=562	=562	=562	=562	=562	=562	=562	=562	=562	=562	=562	=562	=562	=562	=562	=562	=562	=562	=562	=562	=562
.	.	.	.	.	.	.	.	.	.	.	.	.	.	.	.	.	(<16qqRe/L	.	.	.	.	.	.	.	.	.	.	.	.	.	.	.	.	.	.	.	.	.	.	.	.	.	.	.	.	.
!LO:TX:a:rj:t=unis.	!	!LO:TX:a:rj:t=div.	!	!LO:TX:a:rj:t=div.	!	!LO:TX:a:rj:t=div.	!	!LO:TX:a:rj:t=div.	!	!	!	!	!	!	!	!	!	!	!	!	!	!	!	!	!	!	!	!	!	!	!LO:TX:a:t=a 2	!	!	!	!	!	!	!	!	!	!	!	!	!	!LO:TX:t=Allegro ritmico e con brio [quarter]=168	!
.	.	.	.	.	.	.	.	.	.	.	.	.	.	.	.	.	16qqRe/J	.	.	.	.	.	.	.	.	.	.	.	.	.	.	.	.	.	.	.	.	.	.	.	.	.	.	.	.	.
*	*	*^	*	*	*	*	*	*	*	*	*	*	*	*	*	*	*	*	*	*	*	*	*	*	*	*	*	*	*	*	*	*	*	*	*	*	*	*	*	*	*	*	*	*	*	*
!	!	!	!	!	!	!	!	!	!	!	!	!	!	!LO:T:lv	!	!	!	!	!	!	!	!	!	!	!	!	!	!	!	!	!	!	!	!	!	!	!	!	!	!	!	!	!	!	!	!	!
4AAA	ff	4e'^	4AA 4E	ff	4e'^ 4cc#X	ff	4cc#X'^ 4ccc#X	ff	4ee'^ 4eee	ff	4%3r	4Re\	f	[2.Re\	f	4Re^\	f	4Re\)	f	4%3r	.	4AA'	f	4AA'	f	4E' 4A 4e	f	4e' 4ee	f	4E' 4e	ff	(4e)	ff	[2.AA~ [2.E)	ff	[2.EX~)	ff	8cc#X'~ 8eeX	ff	8cc#X'~)	ff	8ee'~ 8ccc#X	ff	8eee'~)	ff	8ccc#X'~ 8eee	ff
.	.	.	.	.	.	.	.	.	.	.	.	.	.	.	.	.	.	.	.	.	.	.	.	.	.	.	.	.	.	.	.	.	.	.	.	.	.	8r	.	8r	.	8r	.	8r	.	8r	.
!	!	!	!	!	!LO:TUP:a	!	!LO:TUP:a	!	!LO:TUP:a	!	!	!	!	!	!	!LO:TUP:a	!	!	!	!	!	!	!	!	!	!	!	!	!	!	!	!	!	!	!	!	!	!LO:TUP:a	!	!LO:TUP:a	!	!LO:TUP:a	!	!LO:TUP:a	!	!LO:TUP:a	!
2AAA~	.	(12dL	[2AA~ [2E	.	(12dL 12b-X	.	(12b-XL 12bb-X	.	(12ddL 12ddd	.	.	4r	.	.	.	12Re\L	.	4r	.	.	.	12AAL	.	[2AA~	.	[2E~ [2A [2e	.	12eL 12ee	.	12EL 12e	.	4d	.	.	.	.	.	(12b-ZL 12dd	.	(12b-ZL	.	(12ddL 12bb-X	.	(12dddL	.	(12bb-XL 12ddd	.
!	!	!	!	!	!	!	!	!	!	!	!	!	!	!LO:TX:a:i:t=vibr.	!	!	!	!	!	!	!	!	!	!	!	!	!	!	!	!	!	!	!	!	!	!	!	!	!	!	!	!	!	!	!	!	!
.	.	12e	.	.	12e 12cc#	.	12cc# 12ccc#	.	12ee 12eee	.	.	.	.	.	.	12Re\	.	.	.	.	.	12AA	.	.	.	.	.	12e 12ee	.	12E 12e	.	.	.	.	.	.	.	12cc# 12ee	.	12cc#	.	12ee 12ccc#	.	12eee	.	12ccc# 12eee	.
.	.	12dJ	.	.	12dJ 12b-	.	12b-J 12bb-	.	12ddJ 12ddd	.	.	.	.	.	.	12Re\J	.	.	.	.	.	12AAJ	.	.	.	.	.	12eJ 12ee	.	12EJ 12e	.	.	.	.	.	.	.	12b-J 12dd	.	12b-J	.	12ddJ 12bb-	.	12dddJ	.	12bb-J 12ddd	.
.	.	[4c#X)	.	.	[4c#X [4a)	.	[4a [4aa)	.	[4cc#X [4ccc#X)	.	.	4r	.	.	.	4Re\	.	4r	.	.	.	4AA	.	.	.	.	.	4e' 4ee	.	[4E [4e	.	[4c#X)	.	.	.	.	.	[4a [4cc#X)	.	[4a)	.	[4cc#X [4aa)	.	[4ccc#X)	.	[4aa [4ccc#X)	.
=563	=563	=563	=563	=563	=563	=563	=563	=563	=563	=563	=563	=563	=563	=563	=563	=563	=563	=563	=563	=563	=563	=563	=563	=563	=563	=563	=563	=563	=563	=563	=563	=563	=563	=563	=563	=563	=563	=563	=563	=563	=563	=563	=563	=563	=563	=563	=563
4AA	.	8c#]	4AA] 4E]	.	8c#] 8a]	.	8a] 8aa]	.	8cc#] 8ccc#]	.	4%3r	4%3r	.	4%3r	.	4r^	.	4r	.	4%3r	.	4r	.	8AA]	.	8E] 8A] 8e]	.	4%3r	.	8E'] 8e]	.	8c#']	.	2.AA] 2.E]	.	2.E]	.	8a] 8cc#]	.	8a]	.	8cc#] 8aa]	.	8ccc#]	.	8aa] 8ccc#]	.
.	.	8r	.	.	8r	.	8r	.	8r	.	.	.	.	.	.	.	.	.	.	.	.	.	.	8r	.	8r	.	.	.	8r	.	8r	.	.	.	.	.	8r	.	8r	.	8r	.	8r	.	8r	.
*	*	*	*	*	*^	*	*^	*	*^	*	*	*	*	*	*	*	*	*	*	*	*	*	*	*	*	*	*	*	*	*	*	*	*	*	*	*	*	*	*	*	*	*	*	*	*	*	*
*	*	*tremolo	*	*	*tremolo	*	*	*tremolo	*	*	*tremolo	*	*	*	*	*	*	*	*	*	*	*	*	*	*	*	*	*	*	*	*	*	*	*	*	*	*	*	*	*	*	*	*	*	*	*	*	*	*	*
*grp:A	*	*grp:A	*grp:B	*	*grp:B	*grp:B	*	*grp:A	*grp:B	*	*grp:A	*grp:B	*	*grp:A	*grp:A	*	*grp:A	*	*grp:A	*	*grp:A	*	*grp:A	*	*grp:A	*	*grp:A	*	*grp:A	*	*grp:A	*	*grp:A	*	*grp:A	*	*grp:A	*	*grp:A	*	*grp:A	*	*grp:A	*	*grp:A	*	*grp:A	*	*grp:A	*
!	!	!	!	!	!	!	!	!	!	!	!	!	!	!	!	!	!	!	!LO:TUP:a	!	!	!	!	!	!	!	!	!	!	!	!	!	!	!	!	!	!	!	!	!	!	!	!	!	!	!	!	!	!	!
2AA~	.	2d~	16AA 16FLL	<	16b-LL	16dLL	<	2bb-X~	16b-XLL	<	2ddd~	16ddLL	<	.	.	.	.	.	12Re\L	.	2Rett\	p < [	.	.	2AATT	p < [	2AA~	.	((2F~ 2B-X 2d	< [	.	.	2E~ 2d	.	2d~	.	.	.	.	.	((2b-~ 2dd	< [	(2b-X~	< [	((2dd~ 2bb-X	< [	(2ddd~	< [	((2bb-X~ 2ddd	< [
.	.	.	16AA 16F	.	16b-	16d	.	.	16b-X	.	.	16dd	.	.	.	.	.	.	.	.	.	.	.	.	.	.	.	.	.	.	.	.	.	.	.	.	.	.	.	.	.	.	.	.	.	.	.	.	.	.
.	.	.	.	.	.	.	.	.	.	.	.	.	.	.	.	.	.	.	12Re\	.	.	.	.	.	.	.	.	.	.	.	.	.	.	.	.	.	.	.	.	.	.	.	.	.	.	.	.	.	.	.
.	.	.	16AA 16F	.	16b-	16d	.	.	16b-X	.	.	16dd	.	.	.	.	.	.	.	.	.	.	.	.	.	.	.	.	.	.	.	.	.	.	.	.	.	.	.	.	.	.	.	.	.	.	.	.	.	.
.	.	.	.	.	.	.	.	.	.	.	.	.	.	.	.	.	.	.	12Re\J	.	.	.	.	.	.	.	.	.	.	.	.	.	.	.	.	.	.	.	.	.	.	.	.	.	.	.	.	.	.	.
.	.	.	16AA 16FJJ	.	16b-JJ	16dJJ	.	.	16b-XJJ	.	.	16ddJJ	.	.	.	.	.	.	.	.	.	.	.	.	.	.	.	.	.	.	.	.	.	.	.	.	.	.	.	.	.	.	.	.	.	.	.	.	.	.
.	.	.	16dLL	.	16ddLL	16ddLL	.	.	16bb-LL	.	.	16dddLL	.	.	.	.	.	.	4Re\	.	.	.	.	.	.	.	.	.	.	.	.	.	.	.	.	.	.	.	.	.	.	.	.	.	.	.	.	.	.	.
.	.	.	16d	.	16dd	16dd	.	.	16bb-	.	.	16ddd	.	.	.	.	.	.	.	.	.	.	.	.	.	.	.	.	.	.	.	.	.	.	.	.	.	.	.	.	.	.	.	.	.	.	.	.	.	.
.	.	.	16d	.	16dd	16dd	.	.	16bb-	.	.	16ddd	.	.	.	.	.	.	.	.	.	.	.	.	.	.	.	.	.	.	.	.	.	.	.	.	.	.	.	.	.	.	.	.	.	.	.	.	.	.
.	.	.	16dJJ	[[	16ddJJ	16ddJJ	[[	.	16bb-JJ	[[	.	16dddJJ	[[	.	.	.	.	.	.	.	.	.	.	.	.	.	.	.	.	.	.	.	.	.	.	.	.	.	.	.	.	.	.	.	.	.	.	.	.	.
*	*	*	*	*	*clefG2	*	*	*	*	*	*	*	*	*	*	*	*	*	*	*	*	*	*	*	*	*	*	*	*	*	*	*	*	*	*	*	*	*	*	*	*	*	*	*	*	*	*	*	*	*
=564	=564	=564	=564	=564	=564	=564	=564	=564	=564	=564	=564	=564	=564	=564	=564	=564	=564	=564	=564	=564	=564	=564	=564	=564	=564	=564	=564	=564	=564	=564	=564	=564	=564	=564	=564	=564	=564	=564	=564	=564	=564	=564	=564	=564	=564	=564	=564	=564	=564	=564
*	*	*	*	*	*	*	*	*	*	*	*	*	*	*	*	*	*	*	*	*	*	*	*	*	*	*	*	*	*	*	*	*	*^	*	*	*	*	*	*	*	*	*	*	*	*	*	*	*	*	*
*	*	*	*	*	*grp:A	*grp:A	*	*grp:A	*grp:A	*	*grp:A	*grp:A	*	*	*	*	*	*	*	*	*	*	*	*	*	*	*	*	*	*	*	*	*	*	*	*	*	*	*	*	*	*	*	*	*	*	*	*	*	*	*
!	!	!	!	!	!	!	!	!	!	!	!	!	!	!	!	!	!	!	!	!	!	!	!	!	!	!	!	!	!	!	!	!	!	!	!	!LO:TX:b:i:t=  marc.	!	!	!	!	!	!	!	!	!	!	!	!	!	!	!
2.AAA~	.	(4c#X	16c#LL	<	8gg`^	8gg	.	8eee`^	8eee	.	8ggg`^	8ggg	.	4%3r	4%3r	.	4%3r	.	4r^	.	8Re'\	f	4%3r	.	4AA^	f	[2.AA~	.	4E' 4A 4g))	.	4%3r	.	4c#X~	[2.E	.	4c#X~	ff <	[2.AA~ [2.E	.	[2.AA~	.	8eeX` 8gg))	.	8ee`)	.	8gg` 8eee))	.	8ggg`)	.	8eee` 8ggg))	.
.	.	.	16c#	.	.	.	.	.	.	.	.	.	.	.	.	.	.	.	.	.	.	.	.	.	.	.	.	.	.	.	.	.	.	.	.	.	.	.	.	.	.	.	.	.	.	.	.	.	.	.	.
*	*	*	*	*	*v	*v	*	*	*	*	*v	*v	*	*	*	*	*	*	*	*	*	*	*	*	*	*	*	*	*	*	*	*	*	*	*	*	*	*	*	*	*	*	*	*	*	*	*	*	*	*	*
*	*	*	*	*	*	*	*v	*v	*	*	*	*	*	*	*	*	*	*	*	*	*	*	*	*	*	*	*	*	*	*	*	*	*	*	*	*	*	*	*	*	*	*	*	*	*	*	*	*	*
.	.	.	16c#	.	8r	.	8r	.	8r	.	.	.	.	.	.	.	.	8r	.	.	.	.	.	.	.	.	.	.	.	.	.	.	.	.	.	.	.	.	8r	.	8r	.	8r	.	8r	.	8r	.
.	.	.	16c#JJ	.	.	.	.	.	.	.	.	.	.	.	.	.	.	.	.	.	.	.	.	.	.	.	.	.	.	.	.	.	.	.	.	.	.	.	.	.	.	.	.	.	.	.	.	.
.	.	.	.	.	.	.	.	.	.	.	.	.	.	.	.	.	.	(<16qqRe/L	.	.	.	.	.	.	.	.	.	.	.	.	.	.	.	.	.	.	.	.	.	.	.	.	.	.	.	.	.	.
!	!	!	!	!	!LO:TX:a:rj:t=unis.	!	!LO:TX:a:rj:t=unis.	!	!LO:TX:a:rj:t=unis.	!	!	!	!	!	!	!	!	!	!	!	!	!	!	!	!	!	!	!	!	!	!	!	!	!	!	!	!	!	!	!	!	!	!	!	!	!	!	!
.	.	.	.	.	.	.	.	.	.	.	.	.	.	.	.	.	.	16qqRe/J	.	.	.	.	.	.	.	.	.	.	.	.	.	.	.	.	.	.	.	.	.	.	.	.	.	.	.	.	.	.
*	*	*	*	*	*Xtremolo	*	*Xtremolo	*	*Xtremolo	*	*	*	*	*	*	*	*	*	*	*	*	*	*	*	*	*	*	*	*	*	*	*	*	*	*	*	*	*	*	*	*	*	*	*	*	*	*	*
!	!	!	!	!	!LO:TUP:a	!	!LO:TUP:a	!	!LO:TUP:a	!	!	!	!	!	!	!LO:TUP:a	!	!	!	!	!	!	!	!	!	!	!	!	!	!	!	!	!	!	!	!	!	!	!LO:TUP:a	!	!LO:TUP:a	!	!LO:TUP:a	!	!LO:TUP:a	!	!LO:TUP:a	!
.	.	4d	16dLL	.	(12ffL	.	(12dddL	.	(12fffL	.	.	.	.	.	.	12Re\L	.	4Re\)	.	.	.	4AA'	.	.	.	4r	.	.	.	4d~	.	.	4d~	.	.	.	.	.	(12ddL 12ff	.	(12ddL	.	(12ffL 12ddd	.	(12fffL	.	(12dddL 12fff	.
.	.	.	16d	.	.	.	.	.	.	.	.	.	.	.	.	.	.	.	.	.	.	.	.	.	.	.	.	.	.	.	.	.	.	.	.	.	.	.	.	.	.	.	.	.	.	.	.	.
.	.	.	.	.	12gg	.	12eee	.	12ggg	.	.	.	.	.	.	12Re\	.	.	.	.	.	.	.	.	.	.	.	.	.	.	.	.	.	.	.	.	.	.	12ee 12gg	.	12ee	.	12gg 12eee	.	12ggg	.	12eee 12ggg	.
.	.	.	16d	.	.	.	.	.	.	.	.	.	.	.	.	.	.	.	.	.	.	.	.	.	.	.	.	.	.	.	.	.	.	.	.	.	.	.	.	.	.	.	.	.	.	.	.	.
.	.	.	.	.	12ffJ	.	12dddJ	.	12fffJ	.	.	.	.	.	.	12Re\J	.	.	.	.	.	.	.	.	.	.	.	.	.	.	.	.	.	.	.	.	.	.	12ddJ 12ff	.	12ddJ	.	12ffJ 12ddd	.	12fffJ	.	12dddJ 12fff	.
.	.	.	16dJJ	.	.	.	.	.	.	.	.	.	.	.	.	.	.	.	.	.	.	.	.	.	.	.	.	.	.	.	.	.	.	.	.	.	.	.	.	.	.	.	.	.	.	.	.	.
.	.	[4e)	[[16eLL	[	[4ee)	.	[4ccc#X)	.	[4eee)	.	.	.	.	.	.	4Re\	.	4r	.	.	.	4r	.	.	.	4r	.	.	.	[4e~	.	.	[4e~	[	.	.	.	.	[4cc#X [4eeX)	.	[4cc#X)	.	[4ee [4ccc#X)	.	[4eee)	.	[4ccc#X [4eee)	.
.	.	.	16e	.	.	.	.	.	.	.	.	.	.	.	.	.	.	.	.	.	.	.	.	.	.	.	.	.	.	.	.	.	.	.	.	.	.	.	.	.	.	.	.	.	.	.	.	.
.	.	.	16e	.	.	.	.	.	.	.	.	.	.	.	.	.	.	.	.	.	.	.	.	.	.	.	.	.	.	.	.	.	.	.	.	.	.	.	.	.	.	.	.	.	.	.	.	.
.	.	.	16eJJ	.	.	.	.	.	.	.	.	.	.	.	.	.	.	.	.	.	.	.	.	.	.	.	.	.	.	.	.	.	.	.	.	.	.	.	.	.	.	.	.	.	.	.	.	.
=565	=565	=565	=565	=565	=565	=565	=565	=565	=565	=565	=565	=565	=565	=565	=565	=565	=565	=565	=565	=565	=565	=565	=565	=565	=565	=565	=565	=565	=565	=565	=565	=565	=565	=565	=565	=565	=565	=565	=565	=565	=565	=565	=565	=565	=565	=565	=565	=565
!LO:TX:a:t=pizz.	!	!	!	!	!	!	!	!	!	!	!	!	!	!	!	!	!	!	!	!	!	!	!	!	!	!	!	!	!	!	!	!	!	!	!	!	!	!	!	!	!	!	!	!	!	!	!	!
4AA^	.	4e]	16eLL]]	.	8ee]	.	8ccc#]	.	8eee]	.	4%3r	4%3r	.	4%3r	.	4r^	.	4r	.	4%3r	.	4r	.	4AA]	.	4%3r	.	4%3r	.	4e]	2.E]	.	4e]	.	2.AA] 2.E]	.	2.AA]	.	8cc#] 8ee]	.	8cc#]	.	8ee] 8ccc#]	.	8eee]	.	8ccc#] 8eee]	.
.	.	.	16e	.	.	.	.	.	.	.	.	.	.	.	.	.	.	.	.	.	.	.	.	.	.	.	.	.	.	.	.	.	.	.	.	.	.	.	.	.	.	.	.	.	.	.	.	.
.	.	.	16e	.	8r	.	8r	.	8r	.	.	.	.	.	.	.	.	.	.	.	.	.	.	.	.	.	.	.	.	.	.	.	.	.	.	.	.	.	8r	.	8r	.	8r	.	8r	.	8r	.
.	.	.	16eJJ	.	.	.	.	.	.	.	.	.	.	.	.	.	.	.	.	.	.	.	.	.	.	.	.	.	.	.	.	.	.	.	.	.	.	.	.	.	.	.	.	.	.	.	.	.
!	!	!	!	!	!	!	!	!	!	!	!	!	!	!	!	!LO:TUP:a	!	!	!	!	!	!	!	!	!	!	!	!	!	!	!	!	!	!	!	!	!	!	!	!	!	!	!	!	!	!	!	!
4r	.	2g	16gLL	.	2cc#X~	< [	2aa~	< [	2ccc#X~	< [	.	.	.	.	.	12Re\L	.	2Rett\	p < [	.	.	2AATT	p < [	4r	.	.	.	.	.	2g~	.	.	2g~	.	.	.	.	.	((2a~ 2cc#X	< [	(2a~	< [	((2cc#X~ 2aa	< [	(2cccc#X~	< [	((2aa~ 2ccc#X	< [
.	.	.	16g	.	.	.	.	.	.	.	.	.	.	.	.	.	.	.	.	.	.	.	.	.	.	.	.	.	.	.	.	.	.	.	.	.	.	.	.	.	.	.	.	.	.	.	.	.
.	.	.	.	.	.	.	.	.	.	.	.	.	.	.	.	12Re\	.	.	.	.	.	.	.	.	.	.	.	.	.	.	.	.	.	.	.	.	.	.	.	.	.	.	.	.	.	.	.	.
.	.	.	16g	.	.	.	.	.	.	.	.	.	.	.	.	.	.	.	.	.	.	.	.	.	.	.	.	.	.	.	.	.	.	.	.	.	.	.	.	.	.	.	.	.	.	.	.	.
.	.	.	.	.	.	.	.	.	.	.	.	.	.	.	.	12Re\J	.	.	.	.	.	.	.	.	.	.	.	.	.	.	.	.	.	.	.	.	.	.	.	.	.	.	.	.	.	.	.	.
.	.	.	16g	.	.	.	.	.	.	.	.	.	.	.	.	.	.	.	.	.	.	.	.	.	.	.	.	.	.	.	.	.	.	.	.	.	.	.	.	.	.	.	.	.	.	.	.	.
4r	.	.	16g	.	.	.	.	.	.	.	.	.	.	.	.	4Re\	.	.	.	.	.	.	.	4r	.	.	.	.	.	.	.	.	.	.	.	.	.	.	.	.	.	.	.	.	.	.	.	.
.	.	.	16g	.	.	.	.	.	.	.	.	.	.	.	.	.	.	.	.	.	.	.	.	.	.	.	.	.	.	.	.	.	.	.	.	.	.	.	.	.	.	.	.	.	.	.	.	.
.	.	.	16g	.	.	.	.	.	.	.	.	.	.	.	.	.	.	.	.	.	.	.	.	.	.	.	.	.	.	.	.	.	.	.	.	.	.	.	.	.	.	.	.	.	.	.	.	.
.	.	.	16gJJ	.	.	.	.	.	.	.	.	.	.	.	.	.	.	.	.	.	.	.	.	.	.	.	.	.	.	.	.	.	.	.	.	.	.	.	.	.	.	.	.	.	.	.	.	.
=566	=566	=566	=566	=566	=566	=566	=566	=566	=566	=566	=566	=566	=566	=566	=566	=566	=566	=566	=566	=566	=566	=566	=566	=566	=566	=566	=566	=566	=566	=566	=566	=566	=566	=566	=566	=566	=566	=566	=566	=566	=566	=566	=566	=566	=566	=566	=566	=566
*	*	*	*	*	*	*	*	*	*	*	*	*	*	*	*	*	*	*	*	*	*	*	*	*	*	*	*	*	*	*	*	*	*	*	*^	*	*	*	*	*	*	*	*	*	*	*	*	*
!LO:TX:a:t=arco	!	!	!	!	!	!	!	!	!	!	!	!	!	!	!	!	!	!	!	!	!	!	!	!	!	!	!	!	!	!	!	!	!	!	!LO:TX:a:t=a 2	!	!	!	!	!	!	!	!	!	!	!	!	!	!
2.GG~	.	(4f	16fLL	.	8dd`^	.	8bb-X`^	.	8ddd`^	.	4%3r	4%3r	.	4%3r	.	4r^	.	8Re'\	f	4%3r	.	4D'^	f	2.GG~	.	4%3r	.	4%3r	.	4f~	2.G~	.	4f~	.	2.GG	2.GG	.	2.G~	.	8b-` 8dd))	.	8b-`)	.	8dd` 8bb-X))	.	8dddd`)	.	8bb-X` 8ddd))	.
.	.	.	16f	.	.	.	.	.	.	.	.	.	.	.	.	.	.	.	.	.	.	.	.	.	.	.	.	.	.	.	.	.	.	.	.	.	.	.	.	.	.	.	.	.	.	.	.	.	.
.	.	.	16f	.	8r	.	8r	.	8r	.	.	.	.	.	.	.	.	8r	.	.	.	.	.	.	.	.	.	.	.	.	.	.	.	.	.	.	.	.	.	8r	.	8r	.	8r	.	8r	.	8r	.
.	.	.	16fJJ	.	.	.	.	.	.	.	.	.	.	.	.	.	.	.	.	.	.	.	.	.	.	.	.	.	.	.	.	.	.	.	.	.	.	.	.	.	.	.	.	.	.	.	.	.	.
.	.	.	.	.	.	.	.	.	.	.	.	.	.	.	.	.	.	(<16qqRe/L	.	.	.	.	.	.	.	.	.	.	.	.	.	.	.	.	.	.	.	.	.	.	.	.	.	.	.	.	.	.	.
.	.	.	.	.	.	.	.	.	.	.	.	.	.	.	.	.	.	16qqRe/J	.	.	.	.	.	.	.	.	.	.	.	.	.	.	.	.	.	.	.	.	.	.	.	.	.	.	.	.	.	.	.
!	!	!	!	!	!LO:TUP:a	!	!LO:TUP:a	!	!LO:TUP:a	!	!	!	!	!	!	!LO:TUP:a	!	!	!	!	!	!	!	!	!	!	!	!	!	!	!	!	!	!	!	!	!	!	!	!LO:TUP:a	!	!LO:TUP:a	!	!LO:TUP:a	!	!LO:TUP:a	!	!LO:TUP:a	!
.	.	4e	16eLL	.	(12cc#XL	.	(12aaL	.	(12ccc#XL	.	.	.	.	.	.	12Re\L	.	4Re\)	.	.	.	4D'	.	.	.	.	.	.	.	4e~	.	.	4e~	.	.	.	.	.	.	(12aL 12cc#X	.	(12aL	.	(12cc#XL 12aa	.	(12cccc#XL	.	(12aaL 12ccc#X	.
.	.	.	16e	.	.	.	.	.	.	.	.	.	.	.	.	.	.	.	.	.	.	.	.	.	.	.	.	.	.	.	.	.	.	.	.	.	.	.	.	.	.	.	.	.	.	.	.	.	.
.	.	.	.	.	12dd	.	12bb-	.	12ddd	.	.	.	.	.	.	12Re\	.	.	.	.	.	.	.	.	.	.	.	.	.	.	.	.	.	.	.	.	.	.	.	12b- 12dd	.	12b-	.	12dd 12bb-	.	12dddd	.	12bb- 12ddd	.
.	.	.	16e	.	.	.	.	.	.	.	.	.	.	.	.	.	.	.	.	.	.	.	.	.	.	.	.	.	.	.	.	.	.	.	.	.	.	.	.	.	.	.	.	.	.	.	.	.	.
.	.	.	.	.	12cc#J	.	12aaJ	.	12ccc#J	.	.	.	.	.	.	12Re\J	.	.	.	.	.	.	.	.	.	.	.	.	.	.	.	.	.	.	.	.	.	.	.	12aJ 12cc#	.	12aJ	.	12cc#J 12aa	.	12cccc#J	.	12aaJ 12ccc#	.
.	.	.	16eJJ	.	.	.	.	.	.	.	.	.	.	.	.	.	.	.	.	.	.	.	.	.	.	.	.	.	.	.	.	.	.	.	.	.	.	.	.	.	.	.	.	.	.	.	.	.	.
.	.	8d')	8d	.	4b-X')	.	4gg')	.	4bb-X')	.	.	.	.	.	.	4Re\	.	4r	.	.	.	4r	.	.	.	.	.	.	.	4d~	.	.	4d~	.	.	.	.	.	.	4g' 4b-X)	.	4g')	.	4b-X' 4gg)	.	4bbb-X')	.	4gg' 4bb-X)	.
*	*	*v	*v	*	*	*	*	*	*	*	*	*	*	*	*	*	*	*	*	*	*	*	*	*	*	*	*	*	*	*	*	*	*	*	*	*	*	*	*	*	*	*	*	*	*	*	*	*	*
.	.	8r	.	.	.	.	.	.	.	.	.	.	.	.	.	.	.	.	.	.	.	.	.	.	.	.	.	.	.	.	.	.	.	.	.	.	.	.	.	.	.	.	.	.	.	.	.	.
*	*	*	*	*	*	*	*	*	*	*	*	*	*	*	*	*	*	*	*	*	*	*	*	*	*	*	*	*	*v	*v	*	*	*	*v	*v	*	*	*	*	*	*	*	*	*	*	*	*	*
*	*	*	*	*clefC3	*	*	*	*	*	*	*	*	*	*	*	*	*	*	*	*	*	*	*	*	*	*	*	*	*	*	*	*	*clefC4	*	*clefG2	*	*	*	*	*	*	*	*	*	*	*
=567	=567	=567	=567	=567	=567	=567	=567	=567	=567	=567	=567	=567	=567	=567	=567	=567	=567	=567	=567	=567	=567	=567	=567	=567	=567	=567	=567	=567	=567	=567	=567	=567	=567	=567	=567	=567	=567	=567	=567	=567	=567	=567	=567	=567	=567	=567
!	!	!LO:TX:a:t=unis.	!	!	!	!	!	!	!	!LO:TX:a:t=Handclapping	!	!	!	!	!	!	!	!	!	!	!	!	!	!	!	!	!	!	!	!	!	!	!	!	!	!	!	!	!	!	!	!	!	!	!	!
*grp:A	*	*grp:A	*	*grp:A	*	*grp:A	*	*grp:A	*	*grp:A	*grp:A	*	*grp:A	*	*grp:A	*	*grp:A	*	*grp:A	*	*grp:A	*	*grp:A	*	*grp:A	*	*grp:A	*	*grp:A	*	*grp:A	*	*grp:B	*	*grp:B	*	*grp:B	*	*grp:B	*	*grp:B	*	*grp:B	*	*grp:B	*
(4GGG	.	(4GG	.	4r	.	(4G	.	(4G	.	4r	4%3r	.	4%3r	.	4%3r	.	4r	.	4r	.	4D'	.	4%3r	.	4%3r	.	4%3r	.	4%3r	.	4%3r	.	8r	.	8r	.	8r	.	8r	.	8r	.	8r	.	8r	.
!	!	!	!	!	!	!	!	!	!	!	!	!	!	!	!	!	!	!	!	!	!	!	!	!	!	!	!	!	!	!	!	!	!LO:TX:a:t=1º	!	!	!	!	!	!	!	!	!	!	!	!	!
.	.	.	.	.	.	.	.	.	.	.	.	.	.	.	.	.	.	.	.	.	.	.	.	.	.	.	.	.	.	.	.	.	(8AL	ff	(8AL	ff	(8f#XL 8a	ff	(8AL	ff	(8f#XL 8a	ff	(8aaaL	ff	(8ff#XL 8aa	ff
.	.	.	.	.	.	.	.	.	.	.	.	.	.	.	.	.	(<16qqRe/L	.	.	.	.	.	.	.	.	.	.	.	.	.	.	.	.	.	.	.	.	.	.	.	.	.	.	.	.	.
.	.	.	.	.	.	.	.	.	.	.	.	.	.	.	.	.	16qqRe/J	.	.	.	.	.	.	.	.	.	.	.	.	.	.	.	.	.	.	.	.	.	.	.	.	.	.	.	.	.
4GG`u)	.	4D`u 4B-X)	.	4E`>u 4B-X 4d	.	4d`u 4b-X 4gg)	.	4g`u 4dd 4gg)	.	4Re\	.	.	.	.	.	.	4Re^\)	.	2Rett\	.	4D^	.	.	.	.	.	.	.	.	.	.	.	8B-X	.	8B-	.	8g 8b-	.	8B-	.	8g 8b-X	.	8bbb-X	.	8gg 8bb-X	.
.	.	.	.	.	.	.	.	.	.	.	.	.	.	.	.	.	.	.	.	.	.	.	.	.	.	.	.	.	.	.	.	.	8c#X	.	8c#X	.	8a 8cc#X	.	8c#X	.	8a 8cc#X	.	8cccc#X	.	8aa 8ccc#X	.
4r	.	4r	.	4r	.	4r	.	4r	.	4r	.	.	.	.	.	.	4r	.	.	.	4r	.	.	.	.	.	.	.	.	.	.	.	8d	.	8d	.	8b- 8dd	.	8d	.	8b-X 8dd	.	8dddd	.	8bb-X 8ddd	.
.	.	.	.	.	.	.	.	.	.	.	.	.	.	.	.	.	.	.	.	.	.	.	.	.	.	.	.	.	.	.	.	.	8eJ	.	8eXJ	.	8cc#XJ 8eeX	.	8eJ	.	8cc#XJ 8ee	.	8eeeeJ	.	8ccc#XJ 8eee	.
=568	=568	=568	=568	=568	=568	=568	=568	=568	=568	=568	=568	=568	=568	=568	=568	=568	=568	=568	=568	=568	=568	=568	=568	=568	=568	=568	=568	=568	=568	=568	=568	=568	=568	=568	=568	=568	=568	=568	=568	=568	=568	=568	=568	=568	=568	=568
.	.	.	.	.	.	.	.	.	.	.	.	.	.	.	.	.	(<16qqRe/L	.	.	.	.	.	.	.	.	.	.	.	.	.	.	.	.	.	.	.	.	.	.	.	.	.	.	.	.	.
.	.	.	.	.	.	.	.	.	.	.	.	.	.	.	.	.	16qqRe/J	.	.	.	.	.	.	.	.	.	.	.	.	.	.	.	.	.	.	.	.	.	.	.	.	.	.	.	.	.
4GGG^	.	4GG'^ 4D 4B-X	.	4E'>^> 4B-X 4d	.	4G'>^> 4d 4b-X 4gg	.	4G'>^> 4g 4dd 4gg	.	4Re\	4%3r	.	4%3r	.	4%3r	.	4Re^\)	.	2.Rettt\	.	4D^	.	4%3r	.	4%3r	.	4%3r	.	4%3r	.	4%3r	.	8fL	.	8fL	.	8ddL 8ff	.	8fL	.	8ddL 8ff	.	8ffffL	.	8dddL 8fff	.
.	.	.	.	.	.	.	.	.	.	.	.	.	.	.	.	.	.	.	.	.	.	.	.	.	.	.	.	.	.	.	.	.	8g	.	8g	.	8eeX 8gg	.	8g	.	8ee 8gg	.	8gggg	.	8eee 8ggg	.
4r	.	4r	.	4r	.	4r	.	4r	.	4r	.	.	.	.	.	.	4r	.	.	.	4r	.	.	.	.	.	.	.	.	.	.	.	8f	.	8f	.	8dd 8ff	.	8f	.	8dd 8ff	.	8ffff	.	8ddd 8fff	.
.	.	.	.	.	.	.	.	.	.	.	.	.	.	.	.	.	.	.	.	.	.	.	.	.	.	.	.	.	.	.	.	.	8e	.	8eX	.	8cc#X 8eeX	.	8e	.	8cc#X 8ee	.	8eeee	.	8ccc#X 8eee	.
.	.	.	.	.	.	.	.	.	.	.	.	.	.	.	.	.	(<16qqRe/L	.	.	.	.	.	.	.	.	.	.	.	.	.	.	.	.	.	.	.	.	.	.	.	.	.	.	.	.	.
.	.	.	.	.	.	.	.	.	.	.	.	.	.	.	.	.	16qqRe/J	.	.	.	.	.	.	.	.	.	.	.	.	.	.	.	.	.	.	.	.	.	.	.	.	.	.	.	.	.
4GG^	.	4GG'^ 4D 4B-	.	4E'>^> 4B- 4d	.	4G'>^> 4d 4b- 4gg	.	4G'>^> 4g 4dd 4gg	.	4Re\	.	.	.	.	.	.	4Re^\)	.	.	.	4D^	.	.	.	.	.	.	.	.	.	.	.	8d	.	8d	.	8b-X 8dd	.	8d	.	8b-X 8dd	.	8dddd	.	8bb-X 8ddd	.
.	.	.	.	.	.	.	.	.	.	.	.	.	.	.	.	.	.	.	.	.	.	.	.	.	.	.	.	.	.	.	.	.	8c#XJ	.	8c#XJ	.	8aJ 8cc#X	.	8c#XJ	.	8aJ 8cc#X	.	8cccc#XJ	.	8aaJ 8ccc#X	.
=569	=569	=569	=569	=569	=569	=569	=569	=569	=569	=569	=569	=569	=569	=569	=569	=569	=569	=569	=569	=569	=569	=569	=569	=569	=569	=569	=569	=569	=569	=569	=569	=569	=569	=569	=569	=569	=569	=569	=569	=569	=569	=569	=569	=569	=569	=569
4r	.	4r	.	4r	.	4r	.	4r	.	4r	4%3r	.	4%3r	.	4%3r	.	4r	.	2.Rettt\	.	4r	.	4%3r	.	4%3r	.	4%3r	.	4%3r	.	4%3r	.	8B-XL	.	8B-XL	.	8gL 8b-X	.	8B-L	.	8gL 8b-X	.	8bbb-XL	.	8ggL 8bb-X	.
.	.	.	.	.	.	.	.	.	.	.	.	.	.	.	.	.	.	.	.	.	.	.	.	.	.	.	.	.	.	.	.	.	8A	.	8A	.	8f#X 8a	.	8A	.	8f#X 8a	.	8aaa	.	8ff#X 8aa	.
.	.	.	.	.	.	.	.	.	.	.	.	.	.	.	.	.	(<16qqRe/L	.	.	.	.	.	.	.	.	.	.	.	.	.	.	.	.	.	.	.	.	.	.	.	.	.	.	.	.	.
.	.	.	.	.	.	.	.	.	.	.	.	.	.	.	.	.	16qqRe/J	.	.	.	.	.	.	.	.	.	.	.	.	.	.	.	.	.	.	.	.	.	.	.	.	.	.	.	.	.
4GGG^	.	4GG'^ 4D 4B-X	.	4E'>^> 4B-X 4d	.	4G'>^> 4d 4b-X 4gg	.	4G'>^> 4g 4dd 4gg	.	4Re\	.	.	.	.	.	.	4Re^\)	.	.	.	4D^	.	.	.	.	.	.	.	.	.	.	.	8B-	.	8B-	.	8g 8b-	.	8B-	.	8g 8b-	.	8bbb-	.	8gg 8bb-	.
.	.	.	.	.	.	.	.	.	.	.	.	.	.	.	.	.	.	.	.	.	.	.	.	.	.	.	.	.	.	.	.	.	8c#X	.	8c#X	.	8a 8cc#X	.	8c#X	.	8a 8cc#X	.	8cccc#X	.	8aa 8ccc#X	.
4r	.	4r	.	4r	.	4r	.	4r	.	4r	.	.	.	.	.	.	4r	.	.	.	4r	.	.	.	.	.	.	.	.	.	.	.	8d	.	8d	.	8b- 8dd	.	8d	.	8b-X 8dd	.	8dddd	.	8bb-X 8ddd	.
.	.	.	.	.	.	.	.	.	.	.	.	.	.	.	.	.	.	.	.	.	.	.	.	.	.	.	.	.	.	.	.	.	8gJ	.	8gJ	.	8ddJ 8gg	.	8gJ	.	8ddJ 8gg	.	8ggggJ	.	8dddJ 8ggg	.
=570	=570	=570	=570	=570	=570	=570	=570	=570	=570	=570	=570	=570	=570	=570	=570	=570	=570	=570	=570	=570	=570	=570	=570	=570	=570	=570	=570	=570	=570	=570	=570	=570	=570	=570	=570	=570	=570	=570	=570	=570	=570	=570	=570	=570	=570	=570
*grp:A	*	*grp:A	*	*grp:A	*	*grp:A	*	*grp:A	*	*grp:A	*grp:A	*	*grp:A	*	*grp:A	*	*grp:A	*	*grp:A	*	*grp:A	*	*grp:A	*	*grp:A	*	*grp:A	*	*grp:A	*	*grp:A	*	*grp:A	*	*grp:A	*	*grp:A	*	*grp:A	*	*grp:A	*	*grp:A	*	*grp:A	*
.	.	.	.	.	.	.	.	.	.	.	.	.	.	.	.	.	(<16qqRe/L	.	.	.	.	.	.	.	.	.	.	.	.	.	.	.	.	.	.	.	.	.	.	.	.	.	.	.	.	.
!	!	!LO:TX:a:rj:t=div.	!	!LO:TX:a:rj:t=div.	!	!LO:TX:a:rj:t=div.	!	!LO:TX:a:rj:t=div.	!	!	!	!	!	!	!	!	!	!	!	!	!	!	!	!	!	!	!	!	!	!	!LO:TX:a:t=a 2	!	!	!	!	!	!	!	!	!	!	!	!	!	!	!
.	.	.	.	.	.	.	.	.	.	.	.	.	.	.	.	.	16qqRe/J	.	.	.	.	.	.	.	.	.	.	.	.	.	.	.	.	.	.	.	.	.	.	.	.	.	.	.	.	.
*	*	*^	*	*	*	*	*	*	*	*	*	*	*	*	*	*	*	*	*	*	*	*	*	*	*	*	*	*	*	*	*	*	*^	*	*	*	*	*	*	*	*	*	*	*	*	*
!	!	!	!	!	!	!	!	!	!	!	!	!	!	!LO:T:lv	!	!	!	!	!	!	!	!	!	!	!	!	!	!	!	!	!	!	!	!	!	!	!	!	!	!	!	!	!	!	!	!	!	!
4AAA	.	4e'^	4AA 4E	.	4e'^ 4cc#X	.	4cc#X'^ 4ccc#X	.	4ee'^ 4eee	.	4%3r	4Re\	.	[2.Re\	.	4Re^\	.	4Re^\)	.	4Re\	.	4AA'	.	4AA'	f	4E' 4A 4e	f	4e' 4ee	f	4E' 4e	ff	(4e	ff	8e')	4r	.	8e')	.	8cc#X` 8eeX)	.	8e`)	.	8cc#X` 8ee)	.	8eeee`)	.	8ccc#X` 8eee)	.
.	.	.	.	.	.	.	.	.	.	.	.	.	.	.	.	.	.	.	.	.	.	.	.	.	.	.	.	.	.	.	.	.	.	8r	.	.	8r	.	8r	.	8r	.	8r	.	8r	.	8r	.
*	*	*Xtremolo	*	*	*	*	*	*	*	*	*	*	*	*	*	*	*	*	*	*	*	*	*	*	*	*	*	*	*	*	*	*	*	*clefF4	*	*	*clefF4	*	*	*	*	*	*	*	*	*	*	*
!	!	!	!	!	!LO:TUP:a	!	!LO:TUP:a	!	!LO:TUP:a	!	!	!	!	!	!	!LO:TUP:a	!	!	!	!	!	!	!	!	!	!	!	!	!	!	!	!	!	!	!	!	!	!	!LO:TUP:a	!	!LO:TUP:a	!	!LO:TUP:a	!	!LO:TUP:a	!	!LO:TUP:a	!
2AAA~	.	(12dL	[2AA~ [2E	.	(12dL 12b-X	.	(12b-XL 12bb-X	.	(12ddL 12ddd	.	.	4r	.	.	.	12Re\L	.	4r	.	4r	.	12AAL	.	[2AA~	.	[2E~ [2A [2e	.	12eL 12ee	.	12EL 12e	.	4d	.	[2AA~ [2E	3.ryy	.	[2EX~	.	(12b-ZL 12dd	.	(12b-ZL	.	(12ddL 12bb-X	.	(12ddddL	.	(12bb-XL 12ddd	.
!	!	!	!	!	!	!	!	!	!	!	!	!	!	!LO:TX:a:i:t=vibr.	!	!	!	!	!	!	!	!	!	!	!	!	!	!	!	!	!	!	!	!	!	!	!	!	!	!	!	!	!	!	!	!	!	!
.	.	12e	.	.	12e 12cc#	.	12cc# 12ccc#	.	12ee 12eee	.	.	.	.	.	.	12Re\	.	.	.	.	.	12AA	.	.	.	.	.	12e 12ee	.	12E 12e	.	.	.	.	.	.	.	.	12cc# 12ee	.	12cc#X	.	12ee 12ccc#X	.	12eeee	.	12ccc# 12eee	.
.	.	12dJ	.	.	12dJ 12b-	.	12b-J 12bb-	.	12ddJ 12ddd	.	.	.	.	.	.	12Re\J	.	.	.	.	.	12AAJ	.	.	.	.	.	12eJ 12ee	.	12EJ 12e	.	.	.	.	.	.	.	.	12b-J 12dd	.	12b-J	.	12ddJ 12bb-	.	12ddddJ	.	12bb-J 12ddd	.
.	.	[4c#X)	.	.	[4c#X [4a)	.	[4a [4aa)	.	[4cc#X [4ccc#X)	.	.	4r	.	.	.	4Re\	.	4r	.	4r	.	4AA	.	.	.	.	.	4e' 4ee	.	[4E [4e	.	[4c#X)	.	.	.	.	.	.	[4a [4cc#X)	.	[4a)	.	[4cc# [4aa)	.	[4cccc#X)	.	[4aa [4ccc#X)	.
*	*	*	*	*	*	*	*	*	*	*	*	*	*	*	*	*	*	*	*	*	*	*	*	*	*	*	*	*	*	*	*	*	*	*v	*v	*	*	*	*	*	*	*	*	*	*	*	*	*
=571	=571	=571	=571	=571	=571	=571	=571	=571	=571	=571	=571	=571	=571	=571	=571	=571	=571	=571	=571	=571	=571	=571	=571	=571	=571	=571	=571	=571	=571	=571	=571	=571	=571	=571	=571	=571	=571	=571	=571	=571	=571	=571	=571	=571	=571	=571	=571
4AA	.	8c#]	4AA] 4E]	.	8c#] 8a]	.	8a] 8aa]	.	8cc#] 8ccc#]	.	4%3r	4%3r	.	4%3r	.	4r	.	4r	.	4%3r	.	4r	.	8AA]	.	8E] 8A] 8e]	.	4%3r	.	8E'] 8e]	.	8c#']	.	2.AA] 2.E]	.	2.E]	.	8a] 8cc#]	.	8a]	.	8cc#] 8aa]	.	8cccc#]	.	8aa] 8ccc#]	.
.	.	8r	.	.	8r	.	8r	.	8r	.	.	.	.	.	.	.	.	.	.	.	.	.	.	8r	.	8r	.	.	.	8r	.	8r	.	.	.	.	.	8r	.	8r	.	8r	.	8r	.	8r	.
*	*	*	*	*	*^	*	*^	*	*^	*	*	*	*	*	*	*	*	*	*	*	*	*	*	*	*	*	*	*	*	*	*	*	*	*	*	*	*	*	*	*	*	*	*	*	*	*	*
*	*	*	*tremolo	*	*tremolo	*tremolo	*	*	*tremolo	*	*	*tremolo	*	*	*	*	*	*	*	*	*	*	*	*	*	*	*	*	*	*	*	*	*	*	*	*	*	*	*	*	*	*	*	*	*	*	*	*	*	*
!	!	!	!	!	!	!	!	!	!	!	!	!	!	!	!	!	!	!	!LO:TUP:a	!	!	!	!	!	!	!	!	!	!	!	!	!	!	!	!	!	!	!	!	!	!	!	!	!	!	!	!	!	!	!
2AA~	.	2d~	16AA 16FLL	<	16b-XLL	16dLL	<	2bb-X~	16b-XLL	<	2ddd~	16ddLL	<	.	.	.	.	.	12Re\L	.	2Rett\	p < [	.	.	2AATT	p < [	[2AA~	.	(2F~ 2B-X (2d	< [	.	.	2E~ 2d	.	2d~	.	.	.	.	.	((2b-~ 2dd	< [	(2b-X~	< [	(2dd~ (2bb-X	< [	(2dddd~	< [	((2bb-X~ 2ddd	< [
.	.	.	16AA 16F	.	16b-X	16d	.	.	16b-X	.	.	16dd	.	.	.	.	.	.	.	.	.	.	.	.	.	.	.	.	.	.	.	.	.	.	.	.	.	.	.	.	.	.	.	.	.	.	.	.	.	.
.	.	.	.	.	.	.	.	.	.	.	.	.	.	.	.	.	.	.	12Re\	.	.	.	.	.	.	.	.	.	.	.	.	.	.	.	.	.	.	.	.	.	.	.	.	.	.	.	.	.	.	.
.	.	.	16AA 16F	.	16b-X	16d	.	.	16b-X	.	.	16dd	.	.	.	.	.	.	.	.	.	.	.	.	.	.	.	.	.	.	.	.	.	.	.	.	.	.	.	.	.	.	.	.	.	.	.	.	.	.
.	.	.	.	.	.	.	.	.	.	.	.	.	.	.	.	.	.	.	12Re\J	.	.	.	.	.	.	.	.	.	.	.	.	.	.	.	.	.	.	.	.	.	.	.	.	.	.	.	.	.	.	.
.	.	.	16AA 16FJJ	.	16b-XJJ	16dJJ	.	.	16b-XJJ	.	.	16ddJJ	.	.	.	.	.	.	.	.	.	.	.	.	.	.	.	.	.	.	.	.	.	.	.	.	.	.	.	.	.	.	.	.	.	.	.	.	.	.
.	.	.	16dLL	[	16ddLL	16ddLL	[	.	16bb-XLL	[	.	16dddLL	[	.	.	.	.	.	4Re\	.	.	.	.	.	.	.	.	.	.	.	.	.	.	.	.	.	.	.	.	.	.	.	.	.	.	.	.	.	.	.
.	.	.	16d	.	16dd	16dd	.	.	16bb-X	.	.	16ddd	.	.	.	.	.	.	.	.	.	.	.	.	.	.	.	.	.	.	.	.	.	.	.	.	.	.	.	.	.	.	.	.	.	.	.	.	.	.
.	.	.	16d	.	16dd	16dd	.	.	16bb-X	.	.	16ddd	.	.	.	.	.	.	.	.	.	.	.	.	.	.	.	.	.	.	.	.	.	.	.	.	.	.	.	.	.	.	.	.	.	.	.	.	.	.
.	.	.	16dJJ	.	16ddJJ	16ddJJ	.	.	16bb-XJJ	.	.	16dddJJ	.	.	.	.	.	.	.	.	.	.	.	.	.	.	.	.	.	.	.	.	.	.	.	.	.	.	.	.	.	.	.	.	.	.	.	.	.	.
*	*	*	*	*	*clefG2	*Xtremolo	*	*	*Xtremolo	*	*	*Xtremolo	*	*	*	*	*	*	*	*	*	*	*	*	*	*	*	*	*	*	*	*	*	*	*	*	*	*	*	*	*	*	*	*	*	*	*	*	*	*
=572	=572	=572	=572	=572	=572	=572	=572	=572	=572	=572	=572	=572	=572	=572	=572	=572	=572	=572	=572	=572	=572	=572	=572	=572	=572	=572	=572	=572	=572	=572	=572	=572	=572	=572	=572	=572	=572	=572	=572	=572	=572	=572	=572	=572	=572	=572	=572	=572	=572	=572
*	*	*	*	*	*	*	*	*	*	*	*	*	*	*	*	*	*	*	*	*	*	*	*	*	*	*	*	*	*	*	*	*	*^	*	*	*	*	*	*	*	*	*	*	*	*	*	*	*	*	*
!	!	!	!	!	!	!	!	!	!	!	!	!	!	!	!	!	!	!	!	!	!	!	!	!	!	!	!	!	!	!	!	!	!	!	!	!	!LO:DY:t=%s marc.	!	!	!	!	!	!	!	!	!	!	!	!	!	!
2.AAA~	.	(4c#X	16c#LL	<	8gg`^	8gg	.	8eee`^	8eee	.	8ggg`^	8ggg	.	4%3r	4%3r	.	4%3r	.	4r	.	8Re^\	f	4%3r	.	4AA'^	f	4AA]	.	4E') 4A 4g)	.	4%3r	.	4c#X~	[2.E	.	4c#X~	ff <	[2.AA~ [2.E	.	[2.AA~	.	8eeX` 8gg))	.	8ee`)	.	8gg`) 8eee)	.	8gggg`)	.	8eee` 8ggg))	.
.	.	.	16c#	.	.	.	.	.	.	.	.	.	.	.	.	.	.	.	.	.	.	.	.	.	.	.	.	.	.	.	.	.	.	.	.	.	.	.	.	.	.	.	.	.	.	.	.	.	.	.	.
*	*	*	*	*	*v	*v	*	*	*	*	*v	*v	*	*	*	*	*	*	*	*	*	*	*	*	*	*	*	*	*	*	*	*	*	*	*	*	*	*	*	*	*	*	*	*	*	*	*	*	*	*	*
*	*	*	*	*	*	*	*v	*v	*	*	*	*	*	*	*	*	*	*	*	*	*	*	*	*	*	*	*	*	*	*	*	*	*	*	*	*	*	*	*	*	*	*	*	*	*	*	*	*	*
.	.	.	16c#	.	8r	.	8r	.	8r	.	.	.	.	.	.	.	.	8r	.	.	.	.	.	.	.	.	.	.	.	.	.	.	.	.	.	.	.	.	8r	.	8r	.	8r	.	8r	.	8r	.
.	.	.	16c#JJ	.	.	.	.	.	.	.	.	.	.	.	.	.	.	.	.	.	.	.	.	.	.	.	.	.	.	.	.	.	.	.	.	.	.	.	.	.	.	.	.	.	.	.	.	.
.	.	.	.	.	.	.	.	.	.	.	.	.	.	.	.	.	.	(<16qqRe/L	.	.	.	.	.	.	.	.	.	.	.	.	.	.	.	.	.	.	.	.	.	.	.	.	.	.	.	.	.	.
!	!	!	!	!	!LO:TX:a:t=unis.	!	!LO:TX:a:t=unis.	!	!LO:TX:a:t=unis.	!	!	!	!	!	!	!	!	!	!	!	!	!	!	!	!	!	!	!	!	!	!	!	!	!	!	!	!	!	!	!	!	!	!	!	!	!	!	!
.	.	.	.	.	.	.	.	.	.	.	.	.	.	.	.	.	.	16qqRe/J	.	.	.	.	.	.	.	.	.	.	.	.	.	.	.	.	.	.	.	.	.	.	.	.	.	.	.	.	.	.
!	!	!	!	!	!LO:TUP:a	!	!LO:TUP:a	!	!LO:TUP:a	!	!	!	!	!	!	!LO:TUP:a	!	!	!	!	!	!	!	!	!	!	!	!	!	!	!	!	!	!	!	!	!	!	!LO:TUP:a	!	!LO:TUP:a	!	!LO:TUP:a	!	!LO:TUP:a	!	!LO:TUP:a	!
.	.	4d	16dLL	.	(12ffL	.	(12dddL	.	(12fffL	.	.	.	.	.	.	12Re\L	.	4Re^\)	.	.	.	4AA'	.	[2AA~	.	4r	.	.	.	4d~	.	.	4d~	.	.	.	.	.	(12ddL 12ff	.	(12ddL	.	(12ffL 12ddd	.	(12ffffL	.	(12dddL 12fff	.
.	.	.	16d	.	.	.	.	.	.	.	.	.	.	.	.	.	.	.	.	.	.	.	.	.	.	.	.	.	.	.	.	.	.	.	.	.	.	.	.	.	.	.	.	.	.	.	.	.
.	.	.	.	.	12gg	.	12eee	.	12ggg	.	.	.	.	.	.	12Re\	.	.	.	.	.	.	.	.	.	.	.	.	.	.	.	.	.	.	.	.	.	.	12ee 12gg	.	12ee	.	12gg 12eee	.	12gggg	.	12eee 12ggg	.
.	.	.	16d	.	.	.	.	.	.	.	.	.	.	.	.	.	.	.	.	.	.	.	.	.	.	.	.	.	.	.	.	.	.	.	.	.	.	.	.	.	.	.	.	.	.	.	.	.
.	.	.	.	.	12ffJ	.	12dddJ	.	12fffJ	.	.	.	.	.	.	12Re\J	.	.	.	.	.	.	.	.	.	.	.	.	.	.	.	.	.	.	.	.	.	.	12ddJ 12ff	.	12ddJ	.	12ffJ 12ddd	.	12ffffJ	.	12dddJ 12fff	.
.	.	.	16dJJ	.	.	.	.	.	.	.	.	.	.	.	.	.	.	.	.	.	.	.	.	.	.	.	.	.	.	.	.	.	.	.	.	.	.	.	.	.	.	.	.	.	.	.	.	.
.	.	[4e)	[[16eLL	.	[4ee)	.	[4ccc#X)	.	[4eee)	.	.	.	.	.	.	4Re\	.	4r	.	.	.	4r	.	.	.	4r	.	.	.	[4e~	.	.	[4e~	.	.	.	.	.	[4cc#X [4eeX)	.	[4cc#X)	.	[4ee [4ccc#X)	.	[4eeee)	.	[4ccc#X [4eee)	.
.	.	.	16e	.	.	.	.	.	.	.	.	.	.	.	.	.	.	.	.	.	.	.	.	.	.	.	.	.	.	.	.	.	.	.	.	.	.	.	.	.	.	.	.	.	.	.	.	.
.	.	.	16e	.	.	.	.	.	.	.	.	.	.	.	.	.	.	.	.	.	.	.	.	.	.	.	.	.	.	.	.	.	.	.	.	.	.	.	.	.	.	.	.	.	.	.	.	.
.	.	.	16eJJ	.	.	.	.	.	.	.	.	.	.	.	.	.	.	.	.	.	.	.	.	.	.	.	.	.	.	.	.	.	.	[	.	.	.	.	.	.	.	.	.	.	.	.	.	.
=573	=573	=573	=573	=573	=573	=573	=573	=573	=573	=573	=573	=573	=573	=573	=573	=573	=573	=573	=573	=573	=573	=573	=573	=573	=573	=573	=573	=573	=573	=573	=573	=573	=573	=573	=573	=573	=573	=573	=573	=573	=573	=573	=573	=573	=573	=573	=573	=573
!LO:TX:a:t=pizz.	!	!	!	!	!	!	!	!	!	!	!	!	!	!	!	!	!	!	!	!	!	!	!	!	!	!	!	!	!	!	!	!	!	!	!	!	!	!	!	!	!	!	!	!	!	!	!	!
4AA^	.	4e]	16eLL]]	.	8ee]	.	8ccc#]	.	8eee]	.	4%3r	4%3r	.	4%3r	.	4r	.	4r	.	4%3r	.	4r	.	4AA]	.	4%3r	.	4%3r	.	4e]	2.E]	.	4e]	.	2.AA] 2.E]	.	2.AA]	.	8cc#] 8ee]	.	8cc#]	.	8ee] 8ccc#]	.	8eeee]	.	8ccc#] 8eee]	.
.	.	.	16e	.	.	.	.	.	.	.	.	.	.	.	.	.	.	.	.	.	.	.	.	.	.	.	.	.	.	.	.	.	.	.	.	.	.	.	.	.	.	.	.	.	.	.	.	.
.	.	.	16e	.	8r	.	8r	.	8r	.	.	.	.	.	.	.	.	.	.	.	.	.	.	.	.	.	.	.	.	.	.	.	.	.	.	.	.	.	8r	.	8r	.	8r	.	8r	.	8r	.
.	.	.	16eJJ	.	.	.	.	.	.	.	.	.	.	.	.	.	.	.	.	.	.	.	.	.	.	.	.	.	.	.	.	.	.	.	.	.	.	.	.	.	.	.	.	.	.	.	.	.
!	!	!	!	!	!	!	!	!	!	!	!	!	!	!	!	!LO:TUP:a	!	!	!	!	!	!	!	!	!	!	!	!	!	!	!	!	!	!	!	!	!	!	!	!	!	!	!	!	!	!	!	!
4r	.	2g	16gLL	[	(2cc#X~	< [	(2aa~	< [	(2ccc#X~	< [	.	.	.	.	.	12Re\L	.	2Rett\	p < [	.	.	2AATT	p < [	4r	.	.	.	.	.	2g~	.	.	2g~	.	.	.	.	.	((2a~ 2cc#X	< [	(2a~	< [	((2cc#X~ 2aa	< [	(2cccc#X~	< [	((2aa~ 2ccc#X	< [
.	.	.	16g	.	.	.	.	.	.	.	.	.	.	.	.	.	.	.	.	.	.	.	.	.	.	.	.	.	.	.	.	.	.	.	.	.	.	.	.	.	.	.	.	.	.	.	.	.
.	.	.	.	.	.	.	.	.	.	.	.	.	.	.	.	12Re\	.	.	.	.	.	.	.	.	.	.	.	.	.	.	.	.	.	.	.	.	.	.	.	.	.	.	.	.	.	.	.	.
.	.	.	16g	.	.	.	.	.	.	.	.	.	.	.	.	.	.	.	.	.	.	.	.	.	.	.	.	.	.	.	.	.	.	.	.	.	.	.	.	.	.	.	.	.	.	.	.	.
.	.	.	.	.	.	.	.	.	.	.	.	.	.	.	.	12Re\J	.	.	.	.	.	.	.	.	.	.	.	.	.	.	.	.	.	.	.	.	.	.	.	.	.	.	.	.	.	.	.	.
.	.	.	16g	.	.	.	.	.	.	.	.	.	.	.	.	.	.	.	.	.	.	.	.	.	.	.	.	.	.	.	.	.	.	.	.	.	.	.	.	.	.	.	.	.	.	.	.	.
4r	.	.	16g	.	.	.	.	.	.	.	.	.	.	.	.	4Re\	.	.	.	.	.	.	.	4r	.	.	.	.	.	.	.	.	.	.	.	.	.	.	.	.	.	.	.	.	.	.	.	.
.	.	.	16g	.	.	.	.	.	.	.	.	.	.	.	.	.	.	.	.	.	.	.	.	.	.	.	.	.	.	.	.	.	.	.	.	.	.	.	.	.	.	.	.	.	.	.	.	.
.	.	.	16g	.	.	.	.	.	.	.	.	.	.	.	.	.	.	.	.	.	.	.	.	.	.	.	.	.	.	.	.	.	.	.	.	.	.	.	.	.	.	.	.	.	.	.	.	.
.	.	.	16gJJ	.	.	.	.	.	.	.	.	.	.	.	.	.	.	.	.	.	.	.	.	.	.	.	.	.	.	.	.	.	.	.	.	.	.	.	.	.	.	.	.	.	.	.	.	.
=574	=574	=574	=574	=574	=574	=574	=574	=574	=574	=574	=574	=574	=574	=574	=574	=574	=574	=574	=574	=574	=574	=574	=574	=574	=574	=574	=574	=574	=574	=574	=574	=574	=574	=574	=574	=574	=574	=574	=574	=574	=574	=574	=574	=574	=574	=574	=574	=574
*	*	*	*	*	*	*	*	*	*	*	*	*	*	*	*	*	*	*	*	*	*	*	*	*	*	*	*	*	*	*	*	*	*	*	*^	*	*	*	*	*	*	*	*	*	*	*	*	*
*	*	*	*tremolo	*	*	*	*	*	*	*	*	*	*	*	*	*	*	*	*	*	*	*	*	*	*	*	*	*	*	*	*	*	*	*	*	*	*	*	*	*	*	*	*	*	*	*	*	*	*
!LO:TX:a:t=arco	!	!	!	!	!	!	!	!	!	!	!	!	!	!	!	!	!	!	!	!	!	!	!	!	!	!	!	!	!	!	!	!	!	!	!LO:TX:a:t=a 2	!	!	!	!	!	!	!	!	!	!	!	!	!	!
2.GG~	.	(4f	16fLL	.	8dd`)	.	8bb-X`)	.	8ddd`^)	.	4%3r	4%3r	.	4%3r	.	4r	.	8Re'\	f	4%3r	.	4D'^	f	2.GG~	.	4%3r	.	4%3r	.	4f~	2.G~	.	4f~	.	2.GG	2.GG	.	2.G~	.	8b-` 8dd))	.	8b-`)	.	8dd` 8bb-X))	.	8dddd`)	.	8bb-X` 8ddd))	.
.	.	.	16f	.	.	.	.	.	.	.	.	.	.	.	.	.	.	.	.	.	.	.	.	.	.	.	.	.	.	.	.	.	.	.	.	.	.	.	.	.	.	.	.	.	.	.	.	.	.
.	.	.	16f	.	8r	.	8r	.	8r	.	.	.	.	.	.	.	.	8r	.	.	.	.	.	.	.	.	.	.	.	.	.	.	.	.	.	.	.	.	.	8r	.	8r	.	8r	.	8r	.	8r	.
.	.	.	16fJJ	.	.	.	.	.	.	.	.	.	.	.	.	.	.	.	.	.	.	.	.	.	.	.	.	.	.	.	.	.	.	.	.	.	.	.	.	.	.	.	.	.	.	.	.	.	.
.	.	.	.	.	.	.	.	.	.	.	.	.	.	.	.	.	.	(<16qqRe/L	.	.	.	.	.	.	.	.	.	.	.	.	.	.	.	.	.	.	.	.	.	.	.	.	.	.	.	.	.	.	.
.	.	.	.	.	.	.	.	.	.	.	.	.	.	.	.	.	.	16qqRe/J	.	.	.	.	.	.	.	.	.	.	.	.	.	.	.	.	.	.	.	.	.	.	.	.	.	.	.	.	.	.	.
!	!	!	!	!	!LO:TUP:a	!	!LO:TUP:a	!	!LO:TUP:a	!	!	!	!	!	!	!LO:TUP:a	!	!	!	!	!	!	!	!	!	!	!	!	!	!	!	!	!	!	!	!	!	!	!	!LO:TUP:a	!	!LO:TUP:a	!	!LO:TUP:a	!	!LO:TUP:a	!	!LO:TUP:a	!
.	.	4e	16eLL	.	(12cc#XL	.	(12aaL	.	(12ccc#XL	.	.	.	.	.	.	12Re\L	.	4Re^\)	.	.	.	4D'	.	.	.	.	.	.	.	4e~	.	.	4e~	.	.	.	.	.	.	(12aL 12cc#X	.	(12aL	.	(12cc#XL 12aa	.	(12cccc#XL	.	(12aaL 12ccc#X	.
.	.	.	16e	.	.	.	.	.	.	.	.	.	.	.	.	.	.	.	.	.	.	.	.	.	.	.	.	.	.	.	.	.	.	.	.	.	.	.	.	.	.	.	.	.	.	.	.	.	.
.	.	.	.	.	12dd	.	12bb-	.	12ddd	.	.	.	.	.	.	12Re\	.	.	.	.	.	.	.	.	.	.	.	.	.	.	.	.	.	.	.	.	.	.	.	12b- 12dd	.	12b-	.	12dd 12bb-	.	12dddd	.	12bb- 12ddd	.
.	.	.	16e	.	.	.	.	.	.	.	.	.	.	.	.	.	.	.	.	.	.	.	.	.	.	.	.	.	.	.	.	.	.	.	.	.	.	.	.	.	.	.	.	.	.	.	.	.	.
.	.	.	.	.	12cc#J	.	12aaJ	.	12ccc#J	.	.	.	.	.	.	12Re\J	.	.	.	.	.	.	.	.	.	.	.	.	.	.	.	.	.	.	.	.	.	.	.	12aJ 12cc#	.	12aJ	.	12cc#J 12aa	.	12cccc#J	.	12aaJ 12ccc#	.
.	.	.	16eJJ	.	.	.	.	.	.	.	.	.	.	.	.	.	.	.	.	.	.	.	.	.	.	.	.	.	.	.	.	.	.	.	.	.	.	.	.	.	.	.	.	.	.	.	.	.	.
*	*	*Xtremolo	*	*	*	*	*	*	*	*	*	*	*	*	*	*	*	*	*	*	*	*	*	*	*	*	*	*	*	*	*	*	*	*	*	*	*	*	*	*	*	*	*	*	*	*	*	*	*
.	.	4d')	8d	.	4b-X')	.	4gg')	.	4bb-X')	.	.	.	.	.	.	4Re\	.	4r	.	.	.	4r	.	.	.	.	.	.	.	4d~	.	.	4d~	.	.	.	.	.	.	4g' 4b-X)	.	4g')	.	4b-X' 4gg)	.	4bbb-X')	.	4gg' 4bb-X)	.
.	.	.	8r	.	.	.	.	.	.	.	.	.	.	.	.	.	.	.	.	.	.	.	.	.	.	.	.	.	.	.	.	.	.	.	.	.	.	.	.	.	.	.	.	.	.	.	.	.	.
*	*	*v	*v	*	*	*	*	*	*	*	*	*	*	*	*	*	*	*	*	*	*	*	*	*	*	*	*	*	*	*v	*v	*	*	*	*v	*v	*	*	*	*	*	*	*	*	*	*	*	*	*
*	*	*	*	*clefC3	*	*	*	*	*	*	*	*	*	*	*	*	*	*	*	*	*	*	*	*	*	*	*	*	*	*	*	*	*	*	*clefG4	*	*	*	*	*	*	*	*	*	*	*
=575	=575	=575	=575	=575	=575	=575	=575	=575	=575	=575	=575	=575	=575	=575	=575	=575	=575	=575	=575	=575	=575	=575	=575	=575	=575	=575	=575	=575	=575	=575	=575	=575	=575	=575	=575	=575	=575	=575	=575	=575	=575	=575	=575	=575	=575	=575
!	!	!LO:TX:a:t=unis.	!	!	!	!	!	!	!	!LO:TX:a:t=Handclapping	!	!	!	!	!	!	!	!	!	!	!	!	!	!	!	!	!	!	!	!	!	!	!	!	!	!	!	!	!	!	!	!	!	!	!	!
*grp:A	*	*grp:A	*	*grp:A	*	*grp:A	*	*grp:A	*	*grp:A	*grp:A	*	*grp:A	*	*grp:A	*	*grp:A	*	*grp:A	*	*grp:A	*	*grp:A	*	*grp:A	*	*grp:A	*	*grp:A	*	*grp:A	*	*grp:B	*	*grp:B	*	*grp:B	*	*grp:B	*	*grp:B	*	*grp:B	*	*grp:B	*
(4GGG	.	(4GG	.	4r	.	(4G	.	(4G	.	4r	4%3r	.	4%3r	.	4%3r	.	4r	.	4r	.	4D'	.	4%3r	.	4%3r	.	4%3r	.	4%3r	.	4%3r	.	8r	.	8r	.	8r	.	8r	.	8r	.	4%3r	.	8r	.
!	!	!	!	!	!	!	!	!	!	!	!	!	!	!	!	!	!	!	!	!	!	!	!	!	!	!	!	!	!	!	!	!	!LO:TX:a:rj:t=1º	!	!	!	!	!	!	!	!	!	!	!	!	!
.	.	.	.	.	.	.	.	.	.	.	.	.	.	.	.	.	.	.	.	.	.	.	.	.	.	.	.	.	.	.	.	.	(8AL	ff	(>8DL	ff	(8f#XL 8a	ff	(8AL	ff	(8f#XL 8a	ff	.	.	(8ff#XL 8aa	ff
.	.	.	.	.	.	.	.	.	.	.	.	.	.	.	.	.	(<16qqRe/L	.	.	.	.	.	.	.	.	.	.	.	.	.	.	.	.	.	.	.	.	.	.	.	.	.	.	.	.	.
.	.	.	.	.	.	.	.	.	.	.	.	.	.	.	.	.	16qqRe/J	.	.	.	.	.	.	.	.	.	.	.	.	.	.	.	.	.	.	.	.	.	.	.	.	.	.	.	.	.
4GG`u)	.	4D`u 4B-X)	.	4E`>u 4B-X 4d	.	4d`u 4b-X 4gg)	.	4g`u 4dd 4gg)	.	4Re\	.	.	.	.	.	.	4Re^\)	.	2Rett\	f	4D^	.	.	.	.	.	.	.	.	.	.	.	8B-X	.	8E-	.	8g 8b-	.	8B-	.	8g 8b-X	.	.	.	8gg 8bb-X	.
.	.	.	.	.	.	.	.	.	.	.	.	.	.	.	.	.	.	.	.	.	.	.	.	.	.	.	.	.	.	.	.	.	8c#X	.	8F#	.	8a 8cc#X	.	8c#X	.	8a 8cc#X	.	.	.	8aa 8ccc#X	.
4r	.	4r	.	4r	.	4r	.	4r	.	4r	.	.	.	.	.	.	4r	.	.	.	4r	.	.	.	.	.	.	.	.	.	.	.	8d	.	8G	.	8b- 8dd	.	8d	.	8b-X 8dd	.	.	.	8bb-X 8ddd	.
.	.	.	.	.	.	.	.	.	.	.	.	.	.	.	.	.	.	.	.	.	.	.	.	.	.	.	.	.	.	.	.	.	8eJ	.	8A#J	.	8cc#XJ 8eeX	.	8eJ	.	8cc#XJ 8ee	.	.	.	8ccc#XJ 8eee	.
=576	=576	=576	=576	=576	=576	=576	=576	=576	=576	=576	=576	=576	=576	=576	=576	=576	=576	=576	=576	=576	=576	=576	=576	=576	=576	=576	=576	=576	=576	=576	=576	=576	=576	=576	=576	=576	=576	=576	=576	=576	=576	=576	=576	=576	=576	=576
.	.	.	.	.	.	.	.	.	.	.	.	.	.	.	.	.	(<16qqRe/L	.	.	.	.	.	.	.	.	.	.	.	.	.	.	.	.	.	.	.	.	.	.	.	.	.	.	.	.	.
.	.	.	.	.	.	.	.	.	.	.	.	.	.	.	.	.	16qqRe/J	.	.	.	.	.	.	.	.	.	.	.	.	.	.	.	.	.	.	.	.	.	.	.	.	.	.	.	.	.
*	*	*	*	*	*	*	*	*	*	*	*	*	*	*	*	*	*	*	*	*	*	*	*	*	*	*	*	*	*	*	*	*	*	*	*	*	*	*	*	*	*	*	*grp:B	*	*	*
4GGG^	.	4GG'^ 4D 4B-X	.	4E'>^> 4B-X 4d	.	4G'>^> 4d 4b-X 4gg	.	4G'>^> 4g 4dd 4gg	.	4Re\	4%3r	.	4%3r	.	4%3r	.	4Re^\)	.	2.Rettt\	.	4D^	.	4%3r	.	4%3r	.	4%3r	.	4%3r	.	4%3r	.	8fL	.	8B-L	.	8ddL 8ff	.	8fL	.	8ddL 8ff	.	4r	.	8dddL 8fff	.
.	.	.	.	.	.	.	.	.	.	.	.	.	.	.	.	.	.	.	.	.	.	.	.	.	.	.	.	.	.	.	.	.	8g	.	8c	.	8eeX 8gg	.	8g	.	8ee 8gg	.	.	.	8eee 8ggg	.
4r	.	4r	.	4r	.	4r	.	4r	.	4r	.	.	.	.	.	.	4r	.	.	.	4r	.	.	.	.	.	.	.	.	.	.	.	8f	.	8B-	.	8dd 8ff	.	8f	.	8dd 8ff	.	(8fffL	ff	8ddd 8fff	.
.	.	.	.	.	.	.	.	.	.	.	.	.	.	.	.	.	.	.	.	.	.	.	.	.	.	.	.	.	.	.	.	.	8e	.	8A#	.	8cc#X 8ee	.	8e	.	8cc#X 8ee	.	8eee	.	8ccc#X 8eee	.
.	.	.	.	.	.	.	.	.	.	.	.	.	.	.	.	.	(<16qqRe/L	.	.	.	.	.	.	.	.	.	.	.	.	.	.	.	.	.	.	.	.	.	.	.	.	.	.	.	.	.
.	.	.	.	.	.	.	.	.	.	.	.	.	.	.	.	.	16qqRe/J	.	.	.	.	.	.	.	.	.	.	.	.	.	.	.	.	.	.	.	.	.	.	.	.	.	.	.	.	.
4GG^	.	4GG'^ 4D 4B-	.	4E'>^> 4B- 4d	.	4G'>^> 4d 4b- 4gg	.	4G'>^> 4g 4dd 4gg	.	4Re\	.	.	.	.	.	.	4Re^\)	.	.	.	4D^	.	.	.	.	.	.	.	.	.	.	.	8d	.	8G	.	8b-X 8dd	.	8d	.	8b-X 8dd	.	8ddd	.	8bb-X 8ddd	.
.	.	.	.	.	.	.	.	.	.	.	.	.	.	.	.	.	.	.	.	.	.	.	.	.	.	.	.	.	.	.	.	.	8c#XJ	.	8F#J	.	8aJ 8cc#X	.	8c#XJ	.	8aJ 8cc#X	.	8ccc#XJ	.	8aaJ 8ccc#X	.
=577	=577	=577	=577	=577	=577	=577	=577	=577	=577	=577	=577	=577	=577	=577	=577	=577	=577	=577	=577	=577	=577	=577	=577	=577	=577	=577	=577	=577	=577	=577	=577	=577	=577	=577	=577	=577	=577	=577	=577	=577	=577	=577	=577	=577	=577	=577
4r	.	4r	.	4r	.	4r	.	4r	.	4r	4%3r	.	4%3r	.	4%3r	.	4r	.	2.Rettt\	.	4r	.	4%3r	.	4%3r	.	4%3r	.	4%3r	.	4%3r	.	8dL	.	8GL	.	8b-XL 8dd	.	8dL	.	8b-XL 8dd	.	8dddL	.	8bb-XL 8ddd	.
.	.	.	.	.	.	.	.	.	.	.	.	.	.	.	.	.	.	.	.	.	.	.	.	.	.	.	.	.	.	.	.	.	8e	.	8A#	.	8cc#X 8eeX	.	8e	.	8cc#X 8ee	.	8eee	.	8ccc#X 8eee	.
.	.	.	.	.	.	.	.	.	.	.	.	.	.	.	.	.	(<16qqRe/L	.	.	.	.	.	.	.	.	.	.	.	.	.	.	.	.	.	.	.	.	.	.	.	.	.	.	.	.	.
.	.	.	.	.	.	.	.	.	.	.	.	.	.	.	.	.	16qqRe/J	.	.	.	.	.	.	.	.	.	.	.	.	.	.	.	.	.	.	.	.	.	.	.	.	.	.	.	.	.
4GGG^	.	4GG'^ 4D 4B-X	.	4E'>^> 4B-X 4d	.	4G'>^> 4d 4b-X 4gg	.	4G'>^> 4g 4dd 4gg	.	4Re\	.	.	.	.	.	.	4Re^\)	.	.	.	4D^	.	.	.	.	.	.	.	.	.	.	.	8f	.	8B-	.	8dd 8ff	.	8f	.	8dd 8ff	.	8fff	.	8ddd 8fff	.
.	.	.	.	.	.	.	.	.	.	.	.	.	.	.	.	.	.	.	.	.	.	.	.	.	.	.	.	.	.	.	.	.	8e	.	8c	.	8ee 8gg	.	8g	.	8ee 8gg	.	8ggg	.	8gg 8eee	.
4r	.	4r	.	4r	.	4r	.	4r	.	4r	.	.	.	.	.	.	4r	.	.	.	4r	.	.	.	.	.	.	.	.	.	.	.	8f	.	8d	.	8ff 8aa	.	8a	.	8ff 8aa	.	8aaa	.	8aa 8fff	.
.	.	.	.	.	.	.	.	.	.	.	.	.	.	.	.	.	.	.	.	.	.	.	.	.	.	.	.	.	.	.	.	.	8dJ)	.	8e-XJ)	.	8ddJ 8bb-)	.	8b-J)	.	8ddJ 8bb-X)	.	8bbb-XJ)	.	8bb-J 8ddd)	.
=	=	=	=	=	=	=	=	=	=	=	=	=	=	=	=	=	=	=	=	=	=	=	=	=	=	=	=	=	=	=	=	=	=	=	=	=	=	=	=	=	=	=	=	=	=	=
*-	*-	*-	*-	*-	*-	*-	*-	*-	*-	*-	*-	*-	*-	*-	*-	*-	*-	*-	*-	*-	*-	*-	*-	*-	*-	*-	*-	*-	*-	*-	*-	*-	*-	*-	*-	*-	*-	*-	*-	*-	*-	*-	*-	*-	*-	*-
!!!system-decoration: [(s1,s2,s3,s4,s5,s6,s7)][([(s8,s9)]s10,s11,s12)][(s13,s14,s15,s16,s17,s18)][(s19)][(s20,s21,s22,s23,s24)]
!!!RDF**kern: > = above
!!!RDF**kern: < = below
!!!RDF**kern: Z = editorial accidental, parentheses
!!!EED: Gabriella Vici
!!!EEV: 2022/01/08
!!!EED2: Daniel Wright
!!!EEV2: 2022/05/06
!!!EED3: Ève Poudrier
!!!Suter_Work_ID: Fal-1
!!!Suter_Example_Number: 302
!!!Suter_Example_ID: Fal-1/92/564-577
!!!Premiere_Location: Nice,France
!!!Other_Tsigs: none
!!!Full_Unit_Duration: 5:38
!!!First_Publication_Year: 1913
!!!First_Public_Performance_Year: 1913
!!!Example_Total_Measures: 14
!!!Example_Timestamp_Duration: 11
!!!Example_Start_Tsig_Type: simple triple
!!!Example_Start_Tsig_Mean_Beat_Rate: 168
!!!Example_Start_Tsig_Beat_Rate: 168
!!!Example_Start_Tsig_Beat: quarter
!!!Example_Start_Tsig: 3/4
!!!Example_Start_Timestamp: 0:00
!!!Example_Start_Tempo_Expression: Allegro ritmico e con brio
!!!Example_Start_Notated_Beat_Rate: 168
!!!Example_Start_Notated_Beat: quarter
!!!Example_Start_Measure: 1(562)
!!!Example_Metadata_Validated: Y
!!!Example_End_Timestamp: 0:11
!!!Example_End_Measure: 14(575)
!!!Example_Dataset: T
!!!Editorial_Comments: Editorial Comment: The SWFU begins on the notated m. 562 and ends on the notated m. 865. However, the notated measures in the E1 nkoda score are two measures off, so the notated m. 562 is actually m. 564, and the notated 575 is actually m. 577. Full Unit Duration calculated from Disc 1 Track 23 (0:00) to Disc 1 Track 7 (1:48) (https://ubc-nml3-naxosmusiclibrary-com.eu1.proxy.openathens.net/catalogue/item.asp?cid=0724356758759). Example Start and End Time based on Disc 1 Track 23 \"Act II Scene 4: Danza (Guests)\" (https://ubc-nml3-naxosmusiclibrary-com.eu1.proxy.openathens.net/catalogue/item.asp?cid=0724356758759).
!!!Death_Place: Alta Gracia,Argentina
!!!Death_Date: 14-Nov-1946
!!!Changing_Tsig: no
!!!Birth_Place: Cádiz,Spain
!!!Birth_Date: 23-Nov-1876
!!!Audio_Example_Quarter_Note_Tempo:
!!!Audio_Example_Duration:
!!!EEV3: 2023/06/06
